X:1
T:Sicut Cervus
T:Sicut Cervus
T:Giovanni Pierluigi da Palestrina
C:Giovanni Pierluigi da Palestrina
%%score [ 1 2 3 4 ]
L:1/8
Q:1/4=100
M:4/4
K:G
V:1 treble nm="Soprano" snm="S."
V:2 treble nm="Alto" snm="A."
V:3 treble-8 nm="Tenor" snm="T."
V:4 bass nm="Bass" snm="B."
V:1
 z8 | z8 | z8 | z4 G4- | G4 G4 | A4 G2 D2 | G3 A B2 B2 | c4 B2 A2 | (B2 d3 c B2- | B2 A2) B4 | %10
w: |||Si|* cut|cer vus de|si de rat ad|fon tes a|qua * * *|* * rum|
 (d3 c BA B2- | BA G4) F2 | G8 | z8 | z4 G4- | G4 G4 | A4 G2 D2 | G3 A B2 B2 | c4 B2 (GA | %19
w: a * * * *|* * * qua|||si|* cut|cer vus de|si de rat ad|fon tes a *|
 BcdB c4 | B2) (A3 G G2- | G2 FE F4) | G8 | z8 | z8 | z4 G4- | G4 F4 | (E3 F G2) (A2- | AG G4 F2 | %29
w: |* qua * *||rum|||i|* ta|de * * si||
 E2 D2 E2) E2 | D8 | z8 | z8 | z4 A4- | A4 G4 | F3 G A2 B2- | B2 A2 (B4- | B2 AG A4 | G3 F E4) | %39
w: * * * de|rat|||i|* ta|de * * si|* de rat|||
 z4 c4- | c2 B2 B4 | A8 | G8 | z2 G2 A2 (c2- | c2 B2 A4- | A4) (G3 A | B2 AG A4) | z8 | c6 B2 | %49
w: a|* ni ma|me|a|ad te De||* us *|||a ni|
 B4 A4- | A4 G4 | z2 G2 A2 (c2- | c2 B2 A3 G | EF G4 F2) | G8- | G8- | G8- | G8 |] %58
w: ma me|* a|ad te De|||us||||
V:2
 z8 | z8 | D8 | D4 E4 | D2 B,2 E3 D | E2 F2 G4 | D4 D2 (E2- | EDEF G2 F2 | G4) F4 | z8 | G8 | %11
w: ||Si|cut cer|vus de si de|rat ad fon|tes a qua||* rum||Si|
 G4 A4 | G2 G,2 B,3 C | D2 (E3 D C2- | CB, B,2) E4 | D2 D2 G,4 | D6 B,2 | B,3 C D2 D2 | E4 D4 | %19
w: cut cer|vus de si de|rat ad * *|* * * fon|tes a qua|rum de|si de rat ad|fon tes|
 G4 (G4- | G2 F2 E4 | D8 | B,3 A, B,C B,2- | B,2 A,G, A,4) | G,8 | z8 | z8 | C8 | B,4 (A,3 B, | %29
w: a qua|||||rum|||i|ta de *|
 C2) (D3 C C2- | C2 B,A, B,4- | B,2) B,2 A,4 | E8- | E4 D4- | D4 z4 | D8 | C4 (B,3 C | D2) E4 D2 | %38
w: * si * *||* de rat|i|* ta||i|ta de *|* si de|
 (E6 DC | D4 C4) | z4 G4- | G2 F2 F4 | E4 D4- | D4 (C3 D | E2) D2 D4 | D4 z2 G2- | G2 F2 F4 | %47
w: rat * *||a|* ni ma|me a|* ad *|* te De|us a|* ni ma|
 E4 D4 | C3 D E2 D2- | D2 G4 F2 | E8- | E4 (C3 D | E4) C2 (E2- | E2 D2) D4 | z2 D2 E2 (G2- | %55
w: me a|ad * * te|* De *|us|* ad *|* te De|* * us|ad te De|
 GFED C2 D2 | E8) | D8 |] %58
w: ||us|
V:3
 G8 | G4 A4 | G2 D2 G3 A | B2 B2 c4 | B2 G2 (c3 B | c2 d2) B4- | B4 z4 | z4 d4- | d4 d4 | %9
w: Si|cut cer|vus de si de|rat ad fon|tes a qua *|* * rum||Si|* cut|
 e4 d2 G2 | B3 c d2 d2 | e4 d4 | (B3 c d2 G2) | (B4 c3 d | e2 d3 c c2- | c2 BA B2 G2- | G2 F2 G4- | %17
w: cer vus de|si de rat ad|fon tes|a * * *|qua * *|||* * rum|
 G4) z4 | z2 G2 B3 c | d2 d2 e4 | (d3 c) (B2 c2) | A8 | G4 z4 | d8 | c4 (B3 c | d2) (e3 d d2- | %26
w: |de si de|rat ad fon|tes * a *|qua|rum|i|ta de *|* si * *|
 d2) ^c2 (d4 | G4) z4 | z4 z2 A2 | A2 B2 c2 c2 | G4 z4 | d8 | c4 B2 c2- | cB (B2 A2) A2 | %34
w: * de rat||i|ta de si de|rat|i|ta de si|* de rat * i|
 D2 A2 B2 B2 | A4 z4 | z4 G4- | G4 F4 | (E3 F G2) A2- | AG (G4 F2) | (G3 A B3 c | d4) z4 | %42
w: ta de si de|rat|i|* ta|de * * si|* * de *|rat * * *||
 z2 c4 B2 | B4 A4 | (G4 D4- | D2) A2 B2 (c2 | d2 DE FGAF | G2 A3 G G2- | G2) F2 G4 | z8 | %50
w: a ni|ma me|a *|* ad te De|||* * us||
 z2 c4 B2 | B4 A4 | G2 G2 A2 (c2- | c2 B2 A4) | G4 z2 B2 | c2 (e4 d2 | c8) | B8 |] %58
w: a ni|ma me|a ad te De||us ad|te De *||us|
V:4
 z8 | z8 | z8 | z8 | z8 | z4 G,4- | G,4 G,4 | A,4 G,2 D,2 | G,3 A, B,2 B,2 | C4 B,2 B,2 | G,4 G,4 | %11
w: |||||Si|* cut|cer vus de|si de rat ad|fon tes a|qua rum|
 z8 | G,8 | G,4 A,4 | G,4 C,4 | G,3 F, E,2 E,2 | D,4 G,,4 | z2 G,2 G,2 G,2 | (C,D,E,F,) G,4 | %19
w: |si|cut cer|vus de|si de rat ad|fon tes|de si de|rat * * * *|
 G,4 C,4 | D,2 D,2 (E,2 C,2) | D,8 | z4 G,4- | G,4 F,4 | (E,3 F, G,2 E,2 | F,2) (G,3 F,E,D, | %26
w: ad fon|tes a qua *|rum|i|* ta|de * * *|* si * * *|
 E,4 D,4 | C,3 D, E,2) F,2 | (G,4 D,4) | z8 | z4 G,4- | G,4 F,4 | (E,3 F, G,2) (A,2- | %33
w: |* * * de|rat *||i|* ta|de * * si|
 A,G, G,4 F,E, | F,4) G,4 | D,8 | z8 | z8 | C,8 | B,,4 A,,4 | (E,3 F, G,2) G,2 | D,6 D,2 | %42
w: |* de|rat|||i|ta de|si * * de|rat de|
 E,2 C,2 G,4- | G,4 z4 | z2 G,4 F,2 | F,4 E,4 | D,4 D,4 | E,2 (C,4 B,,2 | A,,4) G,,4 | %49
w: si de rat||a ni|ma me|a ad|te De *|* us|
 G,4 D,2 D,2 | A,4 E,4 | E,4 (A,,3 B,, | C,D, E,2) (A,,3 B,, | C,2 G,,2) D,2 D,2 | %54
w: a ni ma|me a|ad te *|* * * De *|* * us ad|
 E,2 (G,3 F,E,D, | C,6 B,,2 | C,8) | G,,8 |] %58
w: te De * * *|||us|

